src/qt/rpdchain/res/img/ic-address-send.svg

<?xml version="1.0" encoding="utf-8"?>
<!-- Generator: Adobe Illustrator 28.1.0, SVG Export Plug-In . SVG Version: 6.00 Build 0)  -->
<svg version="1.1" id="Layer_1" xmlns="http://www.w3.org/2000/svg" xmlns:xlink="http://www.w3.org/1999/xlink" x="0px" y="0px"
	 viewBox="0 0 50 40" style="enable-background:new 0 0 50 40;" xml:space="preserve">
<style type="text/css">
	.st0{fill:#D1D5DB;fill-opacity:0.7;}
</style>
<g id="Address-Book">
	<g id="Group_8809" transform="translate(12.000000, 9.000000)">
		<path id="Path_18863" class="st0" d="M4,0H0v22h18V0H4z M2,20V2h1v18H2z M16,20H5V2h11V20z"/>
		<path id="Path_18864" class="st0" d="M15,4H6v6h9V4z M13,8H8V6h5V8z"/>
	</g>
</g>
</svg>

<?xml version="1.0" encoding="UTF-8"?>
<svg width="70px" height="40px" viewBox="0 0 70 40" version="1.1" xmlns="http://www.w3.org/2000/svg" xmlns:xlink="http://www.w3.org/1999/xlink">
    <!-- Generator: Sketch 52.6 (67491) - http://www.bohemiancoding.com/sketch -->
    <title>Address Book Send</title>
    <desc>Created with Sketch.</desc>
    <g id="Address-Book-Send" stroke="none" stroke-width="1" fill="none" fill-rule="evenodd">
        <g id="Group_8809" transform="translate(12.000000, 9.000000)" fill="#707070" fill-rule="nonzero">
            <path d="M4,0 L0,0 L0,22 L18,22 L18,0 L4,0 Z M2,20 L2,2 L3,2 L3,20 L2,20 Z M16,20 L5,20 L5,2 L16,2 L16,20 Z" id="Path_18863"></path>
            <path d="M15,4 L6,4 L6,10 L15,10 L15,4 Z M13,8 L8,8 L8,6 L13,6 L13,8 Z" id="Path_18864"></path>
        </g>
    </g>
</svg>
